X:1
T:24 Waltzes, No. 2
T:24 Waltzes, No. 2
T:Carl Czerny
C:Carl Czerny
%%score { ( 1 3 ) | ( 2 4 ) }
L:1/8
Q:1/4=150
M:3/4
K:A
V:1 treble nm="Piano" snm="Pno."
V:3 treble 
V:2 bass 
V:4 bass 
V:1
!p! (CE | c4 c2 | G2 d2 B,2 | d4 d2 | A2 c2 B,2 | c4 c2 | G2 d2 B,2 | d4 e2 | A4) ::!f! (Te^d | %10
 ec' e'b !>!d'2 | eb d'a !>!c'2 | ea c'g !>!b2) | ae' a'f' e'2 | ec' e'b !>!d'2 | eb d'a !>!c'2 | %16
 ea c'g bc' | a2 z2 :| %18
V:2
 z2 | z2 E,2 E,2 | z2 E,2 E,2 | z2 E,2 E,2 | z2 E,2 E,2 | z2 E,2 E,2 | z2 E,2 E,2 | z2 E,2 (E,2 | %8
 A,,2 A,,,2) :: z2 |xE G,E B,E |xE A,E CE |xE B,E DE |xE CE CE |xE G,E B,E |xE A,E CE |xE B,E DE | %17
 A,2 A,,2 :| %18
V:3
 x2 | (A2 EC AC | GE B2 B,E | B2 GE BE | AE A2 B,E | A2 EC AC | GE B2 B,E | B2 GE ec) | x4 :: x2 | %10
 x6 | x6 | x6 | x6 | x6 | x6 | e6 | x4 :| %18
V:4
 x2 | (A,,6 | E,,6) | (E,,6 | A,,6) | (A,,6 | E,,6) | E,,6 | x4 :: x2 | E,6 | E,6 | E,6 | A,6 | %14
 E,6 | E,6 | E,6 | C2 x2 :| %18

